X: 86
T:Mickey Rattley's Fancy (#282)
M:4/4
L:1/8
S:Rice-Walsh manuscript
R:Reel
K:G
Bd (3ddd d2 dc|Bddg ad d2|1Bd (3ddd d2 dc|ABcA BG G2:|
2gfed edcB|cdef gfdc||B2 BA G2 DF|
GBAF G2 dc|B2 BA G2 AB|cBAB cedc|
B2 BA GBAF|GBAF G2 AB|cBAc BAGE|DEGA BG G2||

